X:1
T:Morning Mood (theme)
C:Edvard Grieg
M:4/4
L:1/4
Q:1/4=88
K:E
E2 E2 | ^F G A B | B A G ^F | E4 | E2 E2 | ^F G A B | c2 B2 | A4 | A2 A2 | B c d e | G4 | e4 | d c B A | G ^F E2 |]
